X:121
T:Cadger in the Canongate. Ru2.121, The
%%VWML:RutherfordVol2-2249-p61-0
F:http://www.vwml.org/record/RutherfordVol2/2249/p61
Z:vmp.Steve Mansfield 2015 www.village-music-project.org.uk
M:C|
L:1/8
W:The first Couple gallop down & up again foot it
W:& cast off .| The same with the 3d Couple :|
W:Foot it & Right Hand & Left into the 2d Couples
W:Place .|. Hands Round all six :|
Q:1/2=75
K:G
|:G>BG>B de/f/ ge | dBgB AA/A/ A2 | G>BG>B de/f/ ge | dBgB G/G/G G2 :|
|: bage gedB | GBgB A/A/A A2 | (b/a/)g (a/g/)e (g/e/)d (e/d/)B | GB gB G/G/G G2 :|
T:Lady Elizabeth's Delight. Ru2.122
B:RUTHERFORD Complete Collection of 200 Country Dances Vol.2; 1759.
Z:vmp.Steve Mansfield 2015 www.village-music-project.org.uk
M:2/4
L:1/8
W:The 1st Man turns his Partner with his Right Hand & cast
W:off one Cou. .| Then turn with his Left & cast up again :|
W:Cross over two Cou. lead up to the Top foot
W:it & cast off. Hands across quite round with the
W:Top Cou. The same back again lead through the Bottom &
W:turn your Partner Right Hand & Left at Top :|
Q:1/2=75
K:F
|:fccc | d2 c2 | fagb | ag/f/ ge |
fccc | d2 c2 | fA/B/ c/B/A/G/ | F2 F2 :|
|: AG/F/ Gc | AG/F/ Gc | AG/A/ B/A/G/F/ | G2 C2 |
AG/F/ Gc | AG/F/ Gc | AG/F/ E/F/G/E/ | F2 F2 :|
